/* XPM */
static char * devai_suite_xpm[] = {
/* columns rows colors chars-per-pixel */
"256 256 14 1 ",
"  c #E9010F",
". c #EC1E2A",
"X c #EC2834",
"o c #EE3A45",
"O c #EF4A54",
"+ c #F1626B",
"@ c #F47C83",
"# c #F58E94",
"$ c #F69CA1",
"% c #F8A9AE",
"& c #F9BEC2",
"* c #FBCDCF",
"= c #FCDEE0",
"- c #FFFEFE",
/* pixels */
"----------------------------------------------------------------------------------------------------------------------------------------------------------------------------------------------------------------------------------------------------------------",
"----------------------------------------------------------------------------------------------------------------------------------------------------------------------------------------------------------------------------------------------------------------",
"----------------------------------------------------------------------------------------------------------------------------------------------------------------------------------------------------------------------------------------------------------------",
"----------------------------------------------------------------------------------------------------------------------------------------------------------------------------------------------------------------------------------------------------------------",
"----------------------------------------------------------------------------------------------------------------------------------------------------------------------------------------------------------------------------------------------------------------",
"----------------------------------------------------------------------------------------------------------------------------------------------------------------------------------------------------------------------------------------------------------------",
"----------------------------------------------------------------------------------------------------------------------------------------------------------------------------------------------------------------------------------------------------------------",
"----------------------------------------------------------------------------------------------------------------------------------------------------------------------------------------------------------------------------------------------------------------",
"----------------------------------------------------------------------------------------------------------------------------------------------------------------------------------------------------------------------------------------------------------------",
"----------------------------------------------------------------------------------------------------------------------------------------------------------------------------------------------------------------------------------------------------------------",
"----------------------------------------------------------------------------------------------------------------------------------------------------------------------------------------------------------------------------------------------------------------",
"----------------------------------------------------------------------------------------------------------------------------------------------------------------------------------------------------------------------------------------------------------------",
"----------------------------------------------------------------------------------------------------------------------------------------------------------------------------------------------------------------------------------------------------------------",
"----------------------------------------------------------------------------------------------------------------------------------------------------------------------------------------------------------------------------------------------------------------",
"----------------------------------------------------------------------------------------------------------------------------------------------------------------------------------------------------------------------------------------------------------------",
"----------------------------------------------------------------------------------------------------------------------------------------------------------------------------------------------------------------------------------------------------------------",
"----------------------------------------------------------------------------------------------------------------------------------------------------------------------------------------------------------------------------------------------------------------",
"----------------------------------------------------------------------------------------------------------------------------------------------------------------------------------------------------------------------------------------------------------------",
"----------------------------------------------------------------------------------------------------------------------------------------------------------------------------------------------------------------------------------------------------------------",
"----------------------------------------------------------------------------------------------------------------------------------------------------------------------------------------------------------------------------------------------------------------",
"----------------------------------------------------------------------------------------------------------------------------------------------------------------------------------------------------------------------------------------------------------------",
"----------------------------------------------------------------------------------------------------------------------------------------------------------------------------------------------------------------------------------------------------------------",
"----------------------------------------------------------------------------------------------------------------------------------------------------------------------------------------------------------------------------------------------------------------",
"----------------------------------------------------------------------------------------------------------------------------------------------------------------------------------------------------------------------------------------------------------------",
"----------------------------------------------------------------------------------------------------------------------------------------------------------------------------------------------------------------------------------------------------------------",
"----------------------------------------------------------------------------------------------------------------------------------------------------------------------------------------------------------------------------------------------------------------",
"----------------------------------------------------------------------------------------------------------------------------------------------------------------------------------------------------------------------------------------------------------------",
"----------------------------------------------------------------------------------------------------------------------------------------------------------------------------------------------------------------------------------------------------------------",
"----------------------------------------------------------------------------------------------------------------------------------------------------------------------------------------------------------------------------------------------------------------",
"----------------------------------------------------------------------------------------------------------------------------------------------------------------------------------------------------------------------------------------------------------------",
"----------------------------------------------------------------------------------------------------------------------------------------------------------------------------------------------------------------------------------------------------------------",
"------------------------------------------------------------------------================================================================================================================------------------------------------------------------------------------",
"-----------------------------------------------------------------=*%#+OoXX............................................................................................................XXoO+@$*=-----------------------------------------------------------------",
"--------------------------------------------------------------*#OX                                                                                                                           .XO#*--------------------------------------------------------------",
"-----------------------------------------------------------*#o.                                                                                                                                  .o#*-----------------------------------------------------------",
"---------------------------------------------------------%O.                                                                                                                                        .O%---------------------------------------------------------",
"-------------------------------------------------------%O                                                                                                                                              O%-------------------------------------------------------",
"-----------------------------------------------------%O                                                                                                                                                  O%-----------------------------------------------------",
"---------------------------------------------------=+                                                                                                                                                      +=---------------------------------------------------",
"--------------------------------------------------$X                                                                                                                                                        X$--------------------------------------------------",
"------------------------------------------------=+                                                                                                                                                            +=------------------------------------------------",
"-----------------------------------------------*O                                                                                                                                                              O*-----------------------------------------------",
"----------------------------------------------%X                                                                                                                                                                X%----------------------------------------------",
"---------------------------------------------%.                                                                                                                                                                  .%---------------------------------------------",
"--------------------------------------------$.                                                                                                                                                                    .$--------------------------------------------",
"-------------------------------------------%.                                                                                                                                                                      .%-------------------------------------------",
"------------------------------------------%.                                                                                                                                                                        .%------------------------------------------",
"-----------------------------------------*X                                                                                                                                                                          X*-----------------------------------------",
"----------------------------------------=O                                                                                                                                                                            O=----------------------------------------",
"----------------------------------------+                                                                                                                                                                              +----------------------------------------",
"---------------------------------------$                                                                                                                                                                                $---------------------------------------",
"--------------------------------------=X                                                                                                                                                                                X=--------------------------------------",
"--------------------------------------+                                                                                                                                                                                  +--------------------------------------",
"-------------------------------------%                                                                                                                                                                                    %-------------------------------------",
"-------------------------------------O                                                                                                                                                                                    O-------------------------------------",
"------------------------------------%                                                                                                                                                                                      %------------------------------------",
"------------------------------------O                                                                                                                                                                                      O------------------------------------",
"-----------------------------------%                                                                                                                                                                                        %-----------------------------------",
"-----------------------------------O                                                                                                                                                                                        O-----------------------------------",
"----------------------------------*.                                                                                                                                                                                        .*----------------------------------",
"----------------------------------#                                                                                                                                                                                          #----------------------------------",
"----------------------------------o                                                                                                                                                                                          o----------------------------------",
"---------------------------------*.                                                                                                                                                                                          .*---------------------------------",
"---------------------------------#                                                                                                                                                                                            #---------------------------------",
"---------------------------------O                                                                                                                                                                                            O---------------------------------",
"--------------------------------=X                                                                                                                                                                                            X=--------------------------------",
"--------------------------------*.                                                                                                                                                                                            .*--------------------------------",
"--------------------------------%                                                                                                                                                                                              %--------------------------------",
"--------------------------------@                                                                                                                                                                                              #--------------------------------",
"--------------------------------+                                                                                                                                                                                              +--------------------------------",
"--------------------------------O                                                                                                                                                                                              O--------------------------------",
"--------------------------------o                                                                                                                                                                                              o--------------------------------",
"-------------------------------=X                                                                                                                                                                                              X=-------------------------------",
"-------------------------------=X                                                                                                                                                                                              X=-------------------------------",
"-------------------------------=.                                                                                                                                                                                              .=-------------------------------",
"-------------------------------=.                                                                                                                                                                                              .=-------------------------------",
"-------------------------------=.                                                                                                                                                                                              .=-------------------------------",
"-------------------------------=.                                                                                                                                                                                              .=-------------------------------",
"-------------------------------=.                                                                                                                                                                                              .=-------------------------------",
"-------------------------------=.                                                                                                                                                                                              .=-------------------------------",
"-------------------------------=.                                                                                                                                                                                              .=-------------------------------",
"-------------------------------=.                                                                                                                                                                                              .=-------------------------------",
"-------------------------------=.                                                                                                                                                                                              .=-------------------------------",
"-------------------------------=.                                                                                                                                                                                              .=-------------------------------",
"-------------------------------=.                                                                                                                                                                                              .=-------------------------------",
"-------------------------------=.                                                                                                                                                                                              .=-------------------------------",
"-------------------------------=.                                                                                                                                                                                              .=-------------------------------",
"-------------------------------=.                                                                                                                                                                                              .=-------------------------------",
"-------------------------------=.                                                                                                                                                                                              .=-------------------------------",
"-------------------------------=.                                                                                                                                                                                              .=-------------------------------",
"-------------------------------=.                                                                                                                                                                                              .=-------------------------------",
"-------------------------------=.                                                                                                                                                                                              .=-------------------------------",
"-------------------------------=.                                                                                                                                                                                              .=-------------------------------",
"-------------------------------=.                                                                                                                                                                                              .=-------------------------------",
"-------------------------------=.                                                                                                                                                                                              .=-------------------------------",
"-------------------------------=.                                                                                                                                                                                              .=-------------------------------",
"-------------------------------=.                                                                                                                                                                                              .=-------------------------------",
"-------------------------------=.                                                                                                                                                                                              .=-------------------------------",
"-------------------------------=.                                                                                                                                                                                              .=-------------------------------",
"-------------------------------=.                                                                                                                                                                                              .=-------------------------------",
"-------------------------------=.                                                                                                                                                                                              .=-------------------------------",
"-------------------------------=.                                                                                                                                                                                              .=-------------------------------",
"-------------------------------=.                                                                                                                                                                                              .=-------------------------------",
"-------------------------------=.                                                                                                                                                                                              .=-------------------------------",
"-------------------------------=.                                                                                                                                                                                              .=-------------------------------",
"-------------------------------=.                                                                                                                                                                                              .=-------------------------------",
"-------------------------------=.                                                                                                                                                                                              .=-------------------------------",
"-------------------------------=.                                                                                                                                                                                              .=-------------------------------",
"-------------------------------=.                                                                                                                                                                                              .=-------------------------------",
"-------------------------------=.                                                                                                                                                                                              .=-------------------------------",
"-------------------------------=.                                                                                                                                                                                              .=-------------------------------",
"-------------------------------=.                                               +$##$$$$$$$###$$$$$###@+Oo.                                        @$$$$$$$$##$#.                                                              .=-------------------------------",
"-------------------------------=.                                               %-------------------------=%#O.                                   O-------------+                                                              .=-------------------------------",
"-------------------------------=.                                               $-----------------------------=$O                                 #-------------%                                                              .=-------------------------------",
"-------------------------------=.                                               $--------------------------------&+                              .*-------------=X                                                             .=-------------------------------",
"-------------------------------=.                                               $----------------------------------%o                            +---------------+                                                             .=-------------------------------",
"-------------------------------=.                                               $-----------------------------------=+                           %---------------%                                                             .=-------------------------------",
"-------------------------------=.                                               $-------------------------------------$.                        X=---------------=o                                                            .=-------------------------------",
"-------------------------------=.                                               $--------------------------------------%.                       +-----------------#                                                            .=-------------------------------",
"-------------------------------=.                                               $----------*%%%%%%%%**=-----------------$                       %--------=--------*.                                                           .=-------------------------------",
"-------------------------------=.                                               $----------o         .XO+%=--------------#                     o=--------@=--------O                                                           .=-------------------------------",
"-------------------------------=.                                               $----------o              X#=-------------O                    @--------=X%--------$                                                           .=-------------------------------",
"-------------------------------=.                                               $----------o                X%------------*.                  .*--------$ @--------=.                                                          .=-------------------------------",
"-------------------------------=.                                               $----------o                  #------------+                  O---------+ o=--------+                                                          .=-------------------------------",
"-------------------------------=.                                               $----------o                   #-----------*.                 #--------=X  *--------%                                                          .=-------------------------------",
"-------------------------------=.                                               $----------o                    %-----------+                .=--------%   #--------=X                                                         .=-------------------------------",
"-------------------------------=.                                               $----------o                    X=----------%                +---------+   O---------+                                                         .=-------------------------------",
"-------------------------------=.                                               $----------o                     +----------=X               %--------=X   .*--------%                                                         .=-------------------------------",
"-------------------------------=.                                               $---------=o                     .=----------+              X=--------%     #--------=o                                                        .=-------------------------------",
"-------------------------------=.                                               $----------o                      $----------#              +---------+     O---------#                                                        .=-------------------------------",
"-------------------------------=.                                               $----------o                      +----------&              %--------=.     .*--------*.                                                       .=-------------------------------",
"-------------------------------=.                                               $----------o                      X=---------=.            o=--------$       #---------O                                                       .=-------------------------------",
"-------------------------------=.                                               $----------o                      .*---------=X            #---------+       o---------#                                                       .=-------------------------------",
"-------------------------------=.                                               $----------o                       %----------O           .*--------=.        *--------=.                                                      .=-------------------------------",
"-------------------------------=.                                               $----------o                       $----------O           O---------$         @---------+                                                      .=-------------------------------",
"-------------------------------=.                                               $----------o                       #----------+           #---------O         o=--------%                                                      .=-------------------------------",
"-------------------------------=.                                               $----------o                       #----------+          .=--------*.          %--------=X                                                     .=-------------------------------",
"-------------------------------=.                                               $----------o                       #----------+          +---------#           +---------+                                                     .=-------------------------------",
"-------------------------------=.                                               $----------o                       #----------O          %---------O           X=--------%                                                     .=-------------------------------",
"-------------------------------=.                                               $----------o                       %----------O         X=--------*.            %--------=o                                                    .=-------------------------------",
"-------------------------------=.                                               $----------o                       %----------o         +---------#             +---------#                                                    .=-------------------------------",
"-------------------------------=.                                               $----------o                      .*---------=X         %---------#O+++++++++++O@---------*.                                                   .=-------------------------------",
"-------------------------------=.                                               $----------o                      X=---------*.        o-----------------------------------O                                                   .=-------------------------------",
"-------------------------------=.                                               $----------o                      +----------%         #-----------------------------------$                                                   .=-------------------------------",
"-------------------------------=.                                               $----------o                      $----------#        .*-----------------------------------=.                                                  .=-------------------------------",
"-------------------------------=.                                               $----------o                     X=----------O        O-------------------------------------+                                                  .=-------------------------------",
"-------------------------------=.                                               $----------o                     @----------=.        $-------------------------------------%                                                  .=-------------------------------",
"-------------------------------=.                                               $----------o                    X=----------$        .=-------------------------------------=X                                                 .=-------------------------------",
"-------------------------------=.                                               $----------o                    $-----------O        +---------------------------------------+                                                 .=-------------------------------",
"-------------------------------=.                                               $----------o                   +-----------&.        %---------=*******************=---------%                                                 .=-------------------------------",
"-------------------------------=.                                               $----------o                  O=-----------+        X=---------#                   +---------=o                                                .=-------------------------------",
"-------------------------------=.                                               $----------o                 +=-----------%.        +----------o                   .=---------#                                                .=-------------------------------",
"-------------------------------=.                                               $----------o               X$------------=O         &---------*.                    $---------*.                                               .=-------------------------------",
"-------------------------------=.                                               $----------o            .o#=-------------#         o----------@                     +----------O                                               .=-------------------------------",
"-------------------------------=.                                               $----------#++++++++++@$*---------------%.         #---------=o                     .=---------#                                               .=-------------------------------",
"-------------------------------=.                                               $--------------------------------------*.         .*---------%                       $---------=.                                              .=-------------------------------",
"-------------------------------=.                                               $-------------------------------------*X          O----------+                       O----------+                                              .=-------------------------------",
"-------------------------------=.                                               $------------------------------------%.           $---------=X                       .*---------%                                              .=-------------------------------",
"-------------------------------=.                                               $----------------------------------=#.           .=---------%                         #---------=X                                             .=-------------------------------",
"-------------------------------=.                                               $---------------------------------%O             +----------+                         O----------+                                             .=-------------------------------",
"-------------------------------=.                                               $-------------------------------%O               %---------=X                         .*---------%                                             .=-------------------------------",
"-------------------------------=.                                               $---------------------------=*#o                X=---------%                           #----------o                                            .=-------------------------------",
"-------------------------------=.                                               #======================**%#+o.                  +==========+                           o==========+                                            .=-------------------------------",
"-------------------------------=.                                               ........................                        ...........                             ...........                                            .=-------------------------------",
"-------------------------------=.                                                                                                                                                                                              .=-------------------------------",
"-------------------------------=.                                                                                                                                                                                              .=-------------------------------",
"-------------------------------=.                                                                                                                                                                                              .=-------------------------------",
"-------------------------------=.                                                                                                                                                                                              .=-------------------------------",
"-------------------------------=.                                                                                                                                                                                              .=-------------------------------",
"-------------------------------=.                                                                                                                                                                                              .=-------------------------------",
"-------------------------------=.                                                                                                                                                                                              .=-------------------------------",
"-------------------------------=.                                                                                                                                                                                              .=-------------------------------",
"-------------------------------=.                                                                                                                                                                                              .=-------------------------------",
"-------------------------------=.                                                                                                                                                                                              .=-------------------------------",
"-------------------------------=.                                                                                                                                                                                              .=-------------------------------",
"-------------------------------=.                                                                                                                                                                                              .=-------------------------------",
"-------------------------------=.                                                                                                                                                                                              .=-------------------------------",
"-------------------------------=.                                                                                                                                                                                              .=-------------------------------",
"-------------------------------=.                                                                                                                                                                                              .=-------------------------------",
"-------------------------------=.                                                                                                                                                                                              .=-------------------------------",
"-------------------------------=.                                                                                                                                                                                              .=-------------------------------",
"-------------------------------=.                                                                                                                                                                                              .=-------------------------------",
"-------------------------------=X                                                                                                                                                                                              X=-------------------------------",
"-------------------------------=X                                                                                                                                                                                              X=-------------------------------",
"--------------------------------o                                                                                                                                                                                              o--------------------------------",
"--------------------------------O                                                                                                                                                                                              O--------------------------------",
"--------------------------------+                                                                                                                                                                                              +--------------------------------",
"--------------------------------@                                                                                                                                                                                              #--------------------------------",
"--------------------------------%                                                                                                                                                                                              %--------------------------------",
"--------------------------------*.                                                                                                                                                                                            .*--------------------------------",
"--------------------------------=X                                                                                                                                                                                            X=--------------------------------",
"---------------------------------O                                                                                                                                                                                            O---------------------------------",
"---------------------------------#                                                                                                                                                                                            #---------------------------------",
"---------------------------------*.                                                                                                                                                                                          .*---------------------------------",
"----------------------------------o                                                                                                                                                                                          o----------------------------------",
"----------------------------------#                                                                                                                                                                                          #----------------------------------",
"----------------------------------*.                                                                                                                                                                                        .*----------------------------------",
"-----------------------------------O                                                                                                                                                                                        O-----------------------------------",
"-----------------------------------%                                                                                                                                                                                        %-----------------------------------",
"------------------------------------O                                                                                                                                                                                      O------------------------------------",
"------------------------------------%                                                                                                                                                                                      %------------------------------------",
"-------------------------------------O                                                                                                                                                                                    O-------------------------------------",
"-------------------------------------%                                                                                                                                                                                    %-------------------------------------",
"--------------------------------------+                                                                                                                                                                                  +--------------------------------------",
"--------------------------------------=X                                                                                                                                                                                X=--------------------------------------",
"---------------------------------------$                                                                                                                                                                                $---------------------------------------",
"----------------------------------------+                                                                                                                                                                              +----------------------------------------",
"----------------------------------------=O                                                                                                                                                                            O=----------------------------------------",
"-----------------------------------------*X                                                                                                                                                                          X*-----------------------------------------",
"------------------------------------------%.                                                                                                                                                                        .%------------------------------------------",
"-------------------------------------------%.                                                                                                                                                                      .%-------------------------------------------",
"--------------------------------------------%.                                                                                                                                                                    .$--------------------------------------------",
"---------------------------------------------%.                                                                                                                                                                  .%---------------------------------------------",
"----------------------------------------------%X                                                                                                                                                                X%----------------------------------------------",
"-----------------------------------------------*O                                                                                                                                                              O*-----------------------------------------------",
"------------------------------------------------=+                                                                                                                                                            +=------------------------------------------------",
"--------------------------------------------------$X                                                                                                                                                        X$--------------------------------------------------",
"---------------------------------------------------=+                                                                                                                                                      +=---------------------------------------------------",
"-----------------------------------------------------%O                                                                                                                                                  O%-----------------------------------------------------",
"-------------------------------------------------------%O                                                                                                                                              O%-------------------------------------------------------",
"---------------------------------------------------------%O.                                                                                                                                        .O%---------------------------------------------------------",
"-----------------------------------------------------------*#o.                                                                                                                                  .o#*-----------------------------------------------------------",
"--------------------------------------------------------------*#OX.                                                                                                                          .XO#*--------------------------------------------------------------",
"-----------------------------------------------------------------=*%#+OoXX............................................................................................................XXoO+@%*=-----------------------------------------------------------------",
"------------------------------------------------------------------------================================================================================================================------------------------------------------------------------------------",
"----------------------------------------------------------------------------------------------------------------------------------------------------------------------------------------------------------------------------------------------------------------",
"----------------------------------------------------------------------------------------------------------------------------------------------------------------------------------------------------------------------------------------------------------------",
"----------------------------------------------------------------------------------------------------------------------------------------------------------------------------------------------------------------------------------------------------------------",
"----------------------------------------------------------------------------------------------------------------------------------------------------------------------------------------------------------------------------------------------------------------",
"----------------------------------------------------------------------------------------------------------------------------------------------------------------------------------------------------------------------------------------------------------------",
"----------------------------------------------------------------------------------------------------------------------------------------------------------------------------------------------------------------------------------------------------------------",
"----------------------------------------------------------------------------------------------------------------------------------------------------------------------------------------------------------------------------------------------------------------",
"----------------------------------------------------------------------------------------------------------------------------------------------------------------------------------------------------------------------------------------------------------------",
"----------------------------------------------------------------------------------------------------------------------------------------------------------------------------------------------------------------------------------------------------------------",
"----------------------------------------------------------------------------------------------------------------------------------------------------------------------------------------------------------------------------------------------------------------",
"----------------------------------------------------------------------------------------------------------------------------------------------------------------------------------------------------------------------------------------------------------------",
"----------------------------------------------------------------------------------------------------------------------------------------------------------------------------------------------------------------------------------------------------------------",
"----------------------------------------------------------------------------------------------------------------------------------------------------------------------------------------------------------------------------------------------------------------",
"----------------------------------------------------------------------------------------------------------------------------------------------------------------------------------------------------------------------------------------------------------------",
"----------------------------------------------------------------------------------------------------------------------------------------------------------------------------------------------------------------------------------------------------------------",
"----------------------------------------------------------------------------------------------------------------------------------------------------------------------------------------------------------------------------------------------------------------",
"----------------------------------------------------------------------------------------------------------------------------------------------------------------------------------------------------------------------------------------------------------------",
"----------------------------------------------------------------------------------------------------------------------------------------------------------------------------------------------------------------------------------------------------------------",
"----------------------------------------------------------------------------------------------------------------------------------------------------------------------------------------------------------------------------------------------------------------",
"----------------------------------------------------------------------------------------------------------------------------------------------------------------------------------------------------------------------------------------------------------------",
"----------------------------------------------------------------------------------------------------------------------------------------------------------------------------------------------------------------------------------------------------------------",
"----------------------------------------------------------------------------------------------------------------------------------------------------------------------------------------------------------------------------------------------------------------",
"----------------------------------------------------------------------------------------------------------------------------------------------------------------------------------------------------------------------------------------------------------------",
"----------------------------------------------------------------------------------------------------------------------------------------------------------------------------------------------------------------------------------------------------------------",
"----------------------------------------------------------------------------------------------------------------------------------------------------------------------------------------------------------------------------------------------------------------",
"----------------------------------------------------------------------------------------------------------------------------------------------------------------------------------------------------------------------------------------------------------------",
"----------------------------------------------------------------------------------------------------------------------------------------------------------------------------------------------------------------------------------------------------------------",
"----------------------------------------------------------------------------------------------------------------------------------------------------------------------------------------------------------------------------------------------------------------",
"----------------------------------------------------------------------------------------------------------------------------------------------------------------------------------------------------------------------------------------------------------------",
"----------------------------------------------------------------------------------------------------------------------------------------------------------------------------------------------------------------------------------------------------------------",
"----------------------------------------------------------------------------------------------------------------------------------------------------------------------------------------------------------------------------------------------------------------"
};
